X:1
T: All the way to Galway
C:
R:Reel
I:speed 232
Q:232
K:G
M:4/4
L:1/8
|:A|de fd cA Ac|BG GA1/2B1/2 cA Ac|de fd cA Ac|BG AF D2DA|
de fd cA Ac|BG GA1/2B1/2 cA Ac|de fd cA Ac|BG AF D2DG|
AB AG AB cA|GA GF EF GE|AB AG AB cd|cA GE D2DG|
AB AG AB cA|GA GF EF GE|AB AG Ad dB|cA GE D2D:|
